X:1
T:Festsang
T:Festsang
T:Tilegnet Den norske studentersangforening i anledning tiårsjubileet 1855
T:H. Kjerulf
T:J. S. Welhaven
C:H. Kjerulf
Z:J. S. Welhaven
%%score [ 1 2 3 4 ]
L:1/8
Q:1/4=110
M:4/4
K:Bb
V:1 treble-8 nm="T1"
V:2 treble-8 nm="T2"
V:3 bass nm="B1"
V:4 bass nm="B2"
V:1
"^Maestoso alla marcia"!mf! B2 B3/2 B/!<(! A2 F2!<)! | d2 (Bd) c2 z2 | %2
w: 1. Hæv dig vor Sang med|ny- vakt _ Røst,|
w: 2. Sam- let ved Mi- mers|dy- be _ Strøm|
w: 3. Sam- klang er Løs- net|for vor _ Fest,|
 f2 (f3/2 e/)!>(! (ed) (c!>)! B) | (A2 B3/2) B/ !>!=B2 c2 |!mp! B2 (F B) B2!<(! (A =B)!<)! | %5
w: lad di- ne To- * ner _|mildt _ be- sej- re|Tung- sinds _ Aan- der i|
w: har vort _ Kor _ med _|San- ge- ne tol- ket|Ung- doms- * li- vet i|
w: den for- * høj- * er vor|San- * ger- lyk- ke,|ræk- ker sin Krans til _|
 c2 d2 e2 z2 |!f! f2 f3/2 e/ d2 g3/2 f/ | =e2 (dc) c2 f2 || z8 | %9
w: Nor- dens Høst,|med- ens Er- ind- rin- gens|Fest vi _ fej- re.||
w: Daad og Drøm,|Min- der og Haab der kan|løf- te _ Fol- ket!||
w: hver en Gjæst,|præ- ger Er- ind- rin- gens|gyld- ne _ Smyk- ke.||
!p!"^dolce e legato" (!>!g2 f2) d2 B2 | (=B2 c2) e2 g2 | !>!g2 f f d2 B2 |!f! d4!<(! =e3 e!<)! | %13
w: Vaar- * ligt os|vin- * ker den|fest- li- ge Tan- ke;|ti gjen- nem|
w: Bar- * men blev|fri _ ved den|hæ- ve- de Stem- me,|fri ved har-|
w: Fjer- * ne- de|Stem- * mer dens|Fyl- de for- nem- mer,|sam- ler de|
 (f2 =e2) d2 ^c2 |!>(! (d8!>)! | !fermata!e2) z2 z4 |!mf! d2 B3/2 d/!<(! f2 (e3/2 e/)!<)! | %17
w: aa- * re- nes|Raad|_|har som en le- ven- de|
w: mo- * ni- ske|Baand.|_|To- ner- nes Kunst lod os|
w: spre- * de- de|Spor,|_|slut- ter paa ny ved _|
!<(! =e2 (c3/2 e/)!<)! g2 f2 | f2 f3/2!>(! _e/ d2!>)! e3/2 G/ | B2!<(! c3/2 c/!<)! c4 | %20
w: duft fuld _ Ran- ke|slyn- get sig Gjæn- ly- den|af vo- re Kvad,|
w: huldt for- * nem- me|Sjæ- le- nes Glæ- de i|Sam- klan- gens Aand,|
w: to- nen- de Min- der|San- ger- nes vidt ad- *|split- te- de Kor,|
!p!!<(! c2 d3/2 e/!<)! (g!>(!f) (e d)!>)! | c2 c3/2 d/ B4 |!mf! B2 B3/2 B/!<(! d4!<)! | %23
w: slyn- get sig Gjen- * ly- den|af vo- re Kvad.|Hæv dig vor Sang,|
w: Sjæ- le- nes Glæ- * de i|Sam- klan- gens Aand.||
w: San- ger- nes vidt _ ad- *|split- te- de Kor.||
!f! B2 B3/2 B/!<(! d4!<)! |!ff! B4 e3 d | d4 z4 |] %26
w: hæv dig vor Sang,|hæv dig vor|Sang!|
w: |||
w: |||
V:2
!mf! F2 F3/2 F/!<(! F2 F2!<)! | B2 (FB) A2 z2 | B2 (A3/2 A/)!>(! B2 (A!>)! B) | %3
w: 1. Hæv dig vor Sang med|ny- vakt _ Røst,|lad di- ne To- ner _|
w: 2. Sam- let ved Mi- mers|dy- be _ Strøm|har vort _ Kor med _|
w: 3. Sam- klang er Løs- net|for vor _ Fest,|den for- * høj- er vor|
 (F2 F3/2) F/ !>!F2 F2 |!mp! F2 (D F) F2!<(! (F _A)!<)! | G2 F2 E2 z2 |!f! c2 c3/2 c/ B2 B3/2 B/ | %7
w: mildt _ be- sej- re|Tung- sinds _ Aan- der i|Nor- dens Høst,|med- ens Er- ind- rin- gens|
w: San- ge- ne tol- ket|Ung- doms- * li- vet i|Daad og Drøm,|Min- der og Haab der kan|
w: San- * ger- lyk- ke,|ræk- ker sin Krans til _|hver en Gjæst,|præ- ger Er- ind- rin- gens|
 B2 B2 B2 A2 ||!p!"^dolce e legato" !>!c4 A2 F2 | (!>!=E2 F2) B2 d2 | (d2 c2) A2 F2 | %11
w: Fest vi fej- re.|Vaar- ligt os|vin- * ker den|fest- * li- ge|
w: løf- te Fol- ket!|Bar- men blev|fri _ ved den|hæ- * ve- de|
w: gyld- ne Smyk- ke.|Fjer- ne- de|Stem- * mer dens|Fyl- * de for-|
 (!>!=E2 F2) (B2 d2) |!f! d4!<(! d3 d!<)! | (d2 ^c2) d2 A2 |!>(! A8-!>)! | !fermata!A2 z2 z4 | %16
w: Tan- * ke; _|ti gjen- nem|aa- * re- nes|Raad|_|
w: Stem- * me, _|fri ved har-|mo- * ni- ske|Baand.|_|
w: nem- * mer, _|sam- ler de|spre- * de- de|Spor,|_|
!mf! B2 F3/2 B/!<(! d2 (B3/2 B/)!<)! |!<(! c2 (G3/2 c/)!<)! =e2 c2 | %18
w: har som en le- ven- de|duft fuld _ Ran- ke|
w: To- ner- nes Kunst lod os|huldt for- * nem- me|
w: slut- ter paa ny ved _|to- nen- de Min- der|
 B2 A3/2!>(! A/ (B_A)!>)! G3/2 G/ | B2!<(! A3/2 A/!<)! B4 | %20
w: slyn- get sig Gjæn- * ly- den|af vo- re Kvad,|
w: Sjæ- le- nes Glæ- * de i|Sam- klan- gens Aand,|
w: San- ger- nes vidt _ ad- *|split- te- de Kor,|
!p!!<(! A2 B3/2 c/!<)! (e!>(!d) (c B)!>)! | B2 A3/2 A/ F4 |!mf! G2 G3/2 G/!<(! F4!<)! | %23
w: slyn- get sig Gjen- * ly- den|af vo- re Kvad.|Hæv dig vor Sang,|
w: Sjæ- le- nes Glæ- * de i|Sam- klan- gens Aand.||
w: San- ger- nes vidt _ ad- *|split- te- de Kor.||
!f! G2 G3/2 G/!<(! F4!<)! |!ff! G4 B3 B | B4 z4 |] %26
w: hæv dig vor Sang,|hæv dig vor|Sang!|
w: |||
w: |||
V:3
!mf! D,2 D,3/2 D,/!<(! E,2 F,2!<)! | F,2 F,2 F,2 z2 | F,2 (F,3/2 F,/)!>(! F,2 (F,!>)! F,) | %3
w: 1. Hæv dig vor Sang med|ny- vakt Røst,|lad di- ne To- ner _|
w: 2. Sam- let ved Mi- mers|dy- be Strøm|har vort _ Kor med _|
w: 3. Sam- klang er Løs- net|for vor Fest,|den for- * høj- er vor|
 (E,2 D,3/2) D,/ !>!E,2 E,2 |!mp! D,2 (F, D,) E,2!<(! (E, F,)!<)! | G,2 G,2 G,2 z2 | %6
w: mildt _ be- sej- re|Tung- sinds _ Aan- der i|Nor- dens Høst,|
w: San- ge- ne tol- ket|Ung- doms- * li- vet i|Daad og Drøm,|
w: San- * ger- lyk- ke,|ræk- ker sin Krans til _|hver en Gjæst,|
!f! F,2 F,3/2 F,/ F,2 G,3/2 G,/ | G,2 G,2 F,2 F,2 ||!pp! .F,2 .F, .F, .F,2 .F, .F, | %9
w: med- ens Er- ind- rin- gens|Fest vi fej- re.|Vaar- ligt os vin- ker den|
w: Min- der og Haab der kan|løf- te Fol- ket!|Bar- men blev fri ved den|
w: præ- ger Er- ind- rin- gens|gyld- ne Smyk- ke.|Fjer- ne- de Stem- mer dens|
 !>!B,2 .B, .B, .F,2 .F,2 | .F,2 .F, .F, .F,2 .A, .A, | !>!B,2 .B, .B, .F,2 .F,2 | %12
w: fest- li- ge Tan- ke,|vaar- ligt os vin- ker den|fest- li- ge Tan- ke;|
w: hæ- ve- de Stem- me,|Bar- men blev fri ved den|hæ- ve- de Stem- me,|
w: Fyl- de for- nem- mer,|fjer- ne- de Stem- mer dens|Fyl- de for- nem- mer,|
!f! D,4!<(! B,3 B,!<)! | (A,2 B,2) A,2 G,2 |!>(! F,8-!>)! | !fermata!F,2 z2 z4 | %16
w: ti gjen- nem|aa- * re- nes|Raad|_|
w: fri ved har-|mo- * ni- ske|Baand.|_|
w: sam- ler de|spre- * de- de|Spor,|_|
!mf! F,2 D,3/2 F,/!<(! B,2 (B,3/2 B,/)!<)! |!<(! G,2 (=E,3/2 G,/)!<)! C2 C2 | %18
w: har som en le- ven- de|duft fuld _ Ran- ke|
w: To- ner- nes Kunst lod os|huldt for- * nem- me|
w: slut- ter paa ny ved _|to- nen- de Min- der|
 F,2 F,3/2!>(! F,/ F,2!>)! E,3/2 G,/ | F,2!<(! F,3/2 F,/!<)! G,4 | %20
w: slyn- get sig Gjæn- ly- den|af vo- re Kvad,|
w: Sjæ- le- nes Glæ- de i|Sam- klan- gens Aand,|
w: San- ger- nes vidt ad- *|split- te- de Kor,|
!p!!<(! F,2 F,3/2 E,/!<)! (C,!>(!D,) (E, F,)!>)! | G,2 F,3/2 E,/ D,4 | %22
w: slyn- get sig Gjen- * ly- den|af vo- re Kvad.|
w: Sjæ- le- nes Glæ- * de i|Sam- klan- gens Aand.|
w: San- ger- nes vidt _ ad- *|split- te- de Kor.|
!mf! E,2 E,3/2 E,/!<(! B,,4!<)! |!f! E,2 E,3/2 E,/!<(! B,,4!<)! |!ff! E,4 G,3 F, | F,4 z4 |] %26
w: Hæv dig vor Sang,|hæv dig vor Sang,|hæv dig vor|Sang!|
w: ||||
w: ||||
V:4
!mf! B,,2 B,,3/2 B,,/!<(! C,2 F,2!<)! | B,,2 (F,D,) F,2 z2 | D,2 (C,3/2 C,/)!>(! B,,2 (E,!>)! D,) | %3
w: 1. Hæv dig vor Sang med|ny- vakt _ Røst,|lad di- ne To- ner _|
w: 2. Sam- let ved Mi- mers|dy- be _ Strøm|har vort _ Kor med _|
w: 3. Sam- klang er Løs- net|for vor _ Fest,|den for- * høj- er vor|
 (C,2 B,,3/2) B,,/ !>!A,,2 F,,2 |!mp! B,,2 (D, B,,) C,2!<(! (C, D,)!<)! | E,2 =B,,2 C,2 z2 | %6
w: mildt _ be- sej- re|Tung- sinds _ Aan- der i|Nor- dens Høst,|
w: San- ge- ne tol- ket|Ung- doms- * li- vet i|Daad og Drøm,|
w: San- * ger- lyk- ke,|ræk- ker sin Krans til _|hver en Gjæst,|
!f! A,,2 A,,3/2 A,,/ _B,,2 G,,3/2 G,,/ | C,2 (D,=E,) F,2 F,,2 ||!pp! ._E,2 .E, .E, .E,2 .E, .E, | %9
w: med- ens Er- ind- rin- gens|Fest vi _ fej- re.|Vaar- ligt os vin- ker den|
w: Min- der og Haab der kan|løf- te _ Fol- ket!|Bar- men blev fri ved den|
w: præ- ger Er- ind- rin- gens|gyld- ne _ Smyk- ke.|Fjer- ne- de Stem- mer dens|
 !>!^C,2 .D, .D, .B,,2 .B,,2 | .E,2 .E, .E, .E,2 .E, .E, | !>!^C,2 .D, .D, .B,,2 .B,,2 | %12
w: fest- li- ge Tan- ke,|vaar- ligt os vin- ker den|fest- li- ge Tan- ke;|
w: hæ- ve- de Stem- me,|Bar- men blev fri ved den|hæ- ve- de Stem- me,|
w: Fyl- de for- nem- mer,|fjer- ne- de Stem- mer dens|Fyl- de for- nem- mer,|
!f! D,4!<(! G,,3 G,,!<)! | (A,,2 G,2) F,2 =E,2 |!>(! (D,8!>)! | !fermata!C,2) z2 z4 | %16
w: ti gjen- nem|aa- * re- nes|Raad|_|
w: fri ved har-|mo- * ni- ske|Baand.|_|
w: sam- ler de|spre- * de- de|Spor,|_|
!mf! B,,2 B,,3/2 B,,/!<(! _A,2 (G,3/2 G,/)!<)! |!<(! C,2 (C,3/2 =E,/)!<)! B,2 A,2 | %18
w: har som en le- ven- de|duft fuld _ Ran- ke|
w: To- ner- nes Kunst lod os|huldt for- * nem- me|
w: slut- ter paa ny ved _|to- nen- de Min- der|
 D,2 C,3/2!>(! C,/ (B,,=B,,)!>)! C,3/2 E,/ | D,2!<(! F,3/2 F,/!<)! =E,4 | %20
w: slyn- get sig Gjæn- * ly- den|af vo- re Kvad,|
w: Sjæ- le- nes Glæ- * de i|Sam- klan- gens Aand,|
w: San- ger- nes vidt _ ad- *|split- te- de Kor,|
!p!!<(! _E,2 D,3/2 C,/!<)! (A,,!>(!B,,) (C, D,)!>)! | E,2 F,3/2 F,/ B,,4 | %22
w: slyn- get sig Gjen- * ly- den|af vo- re Kvad.|
w: Sjæ- le- nes Glæ- * de i|Sam- klan- gens Aand.|
w: San- ger- nes vidt _ ad- *|split- te- de Kor.|
 z4!mf!!<(! B,2 B,3/2 B,/!<)! |!f! B,,4!<(! B,2 B,3/2 B,/!<)! |!ff! B,,8- | B,,4 z4 |] %26
w: Hæv dig vor|Sang, hæv dig vor|Sang!|_|
w: ||||
w: ||||

